svg/blobs-icons/no-decorations/flower.svg

<svg xmlns="http://www.w3.org/2000/svg" xmlns:xlink="http://www.w3.org/1999/xlink" preserveAspectRatio="xMidYMid" width="108" height="216" viewBox="0 0 108 216"><defs><style>.cls-3{fill:#0cb04a}.cls-5{fill:#ff3a2f}.cls-6{fill:#000;opacity:.35}.cls-11{fill:#fbb713}.cls-13{fill:#142a3b}.cls-15{fill:#ededed}</style></defs><g id="group-80svg"><path d="M54.274 125.482s-6.428.0-6.428.0.0-34.341.0-34.341 6.428.0 6.428.0.0 34.341.0 34.341z" id="path-1" class="cls-3" fill-rule="evenodd"/><path d="M73.642 103.215S54.287 122.57 54.287 122.57C54.014 122.842 53.573 122.842 53.3 122.57L50.421 119.691C50.148 119.419 50.148 118.977 50.421 118.704L69.776 99.35C70.049 99.077 70.49 99.077 70.763 99.35L73.642 102.229C73.915 102.502 73.915 102.942 73.642 103.215z" id="path-2" class="cls-3" fill-rule="evenodd"/><path d="M102.338 50.814C102.338 42.732 95.787 36.181 87.705 36.181 87.371 36.181 87.045 36.209 86.716 36.231 86.964 36.014 87.215 35.802 87.451 35.567 93.165 29.852 93.165 20.588 87.451 14.874 81.736 9.159 72.472 9.159 66.757 14.874 66.521 15.11 66.31 15.361 66.093 15.61 66.115 15.28 66.143 14.953 66.143 14.62c0-8.081-6.551-14.633-14.633-14.633-8.081.0-14.632 6.552-14.632 14.633C36.878 14.953 36.906 15.28 36.928 15.61 36.711 15.361 36.499 15.11 36.263 14.874c-5.714-5.715-14.979-5.715-20.693.0-5.715 5.714-5.715 14.978.0 20.693C15.806 35.802 16.057 36.014 16.305 36.231 15.977 36.209 15.649 36.181 15.316 36.181 7.234 36.181.683 42.732.683 50.814c0 8.08 6.551 14.632 14.633 14.632C15.649 65.446 15.977 65.417 16.305 65.395 16.057 65.612 15.806 65.823 15.57 66.06 9.855 71.773 9.855 81.039 15.57 86.753 21.284 92.466 30.549 92.466 36.263 86.753 36.499 86.516 36.711 86.265 36.928 86.017 36.906 86.345 36.878 86.673 36.878 87.008c0 8.08 6.551 14.63 14.632 14.63C59.592 101.638 66.143 95.088 66.143 87.008 66.143 86.673 66.115 86.345 66.093 86.017 66.31 86.265 66.521 86.516 66.757 86.753 72.472 92.466 81.736 92.466 87.451 86.753 93.165 81.039 93.165 71.773 87.451 66.06 87.215 65.823 86.964 65.612 86.716 65.395 87.045 65.417 87.371 65.446 87.705 65.446 95.787 65.446 102.338 58.894 102.338 50.814z" id="path-3" class="cls-5" fill-rule="evenodd"/><path d="M58.305 10.701C58.305 11.034 58.278 11.361 58.256 11.69 58.472 11.442 58.683 11.191 58.92 10.954c1.562-1.562 3.4-2.656 5.349-3.364C62.14 3.737 58.368.957 53.862.224c2.733 2.659 4.443 6.363 4.443 10.477z" id="path-4" class="cls-6" fill-rule="evenodd"/><path d="M79.613 10.954c5.715 5.715 5.715 14.98.0 20.694C79.377 31.884 79.126 32.096 78.878 32.312 79.207 32.29 79.534 32.262 79.867 32.262c3.048.0 5.875.936 8.217 2.53C93.095 29.044 92.924 20.346 87.451 14.874 85.19 12.613 82.37 11.283 79.438 10.812 79.493 10.865 79.559 10.899 79.613 10.954z" id="path-5" class="cls-6" fill-rule="evenodd"/><path d="M102.338 50.814C102.338 43.538 97.013 37.549 90.057 36.418 92.79 39.076 94.5 42.78 94.5 46.894c0 8.082-6.551 14.632-14.633 14.632C79.534 61.526 79.207 61.498 78.878 61.477 79.126 61.692 79.377 61.904 79.613 62.141 85.328 67.855 85.328 77.12 79.613 82.833 76.159 86.287 71.412 87.616 66.932 86.895 72.658 92.447 81.791 92.412 87.451 86.752 93.165 81.039 93.165 71.773 87.451 66.06 87.215 65.823 86.964 65.612 86.716 65.396 87.045 65.417 87.371 65.446 87.705 65.446 95.787 65.446 102.338 58.894 102.338 50.814z" id="path-6" class="cls-6" fill-rule="evenodd"/><path d="M29.04 83.088C29.04 82.754 29.068 82.427 29.09 82.099 28.873 82.346 28.662 82.598 28.426 82.833 24.972 86.287 20.224 87.616 15.744 86.895 19.89 90.915 25.805 91.974 30.914 90.117 29.756 88.023 29.04 85.651 29.04 83.088z" id="path-7" class="cls-6" fill-rule="evenodd"/><path d="M58.92 82.833C58.683 82.598 58.472 82.346 58.256 82.099 58.278 82.427 58.305 82.754 58.305 83.088 58.305 91.17 51.754 97.72 43.672 97.72 42.867 97.72 42.091 97.609 41.321 97.484 43.957 100.046 47.543 101.638 51.51 101.638 59.592 101.638 66.143 95.088 66.143 87.008 66.143 86.92 66.134 86.836 66.13 86.75 63.49 86.172 60.973 84.887 58.92 82.833z" id="path-8" class="cls-6" fill-rule="evenodd"/><path d="M78.056 50.814c0 14.659-11.885 26.543-26.546 26.543-14.66.0-26.544-11.884-26.544-26.543.0-14.661 11.884-26.545 26.544-26.545 14.661.0 26.546 11.884 26.546 26.545z" id="path-9" class="cls-11" fill-rule="evenodd"/><path d="M68.212 30.194C71.912 34.755 74.136 40.562 74.136 46.894c0 14.66-11.884 26.545-26.544 26.545C41.259 73.439 35.452 71.214 30.89 67.515c4.867 6 12.292 9.842 20.62 9.842 14.661.0 26.546-11.884 26.546-26.543C78.056 42.484 74.213 35.059 68.212 30.194z" id="path-10" class="cls-6" fill-rule="evenodd"/><path d="M77.297 215.52s-47.22.0-47.22.0S.006 125.311.006 125.311s107.362.0 107.362.0S77.297 215.52 77.297 215.52z" id="path-11" class="cls-13" fill-rule="evenodd"/><path d="M.006 125.31s3.92 11.757 3.92 11.757 49.903.0 49.903.0c14.772.0 25.201 14.471 20.531 28.483L57.703 215.52s19.594.0 19.594.0 30.071-90.21 30.071-90.21-107.362.0-107.362.0z" id="path-12" class="cls-6" fill-rule="evenodd"/><path d="M35.869 196.552c-1.551.0-2.982-1.01499999999999-3.443-2.578L19.884 151.521C19.321 149.618 20.409 147.621 22.312 147.059 24.213 146.5 26.215 147.583 26.774 149.487l12.542 42.452C39.879 193.842 38.791 195.841 36.888 196.402 36.55 196.501 36.206 196.552 35.869 196.552z" id="path-13" class="cls-15" fill-rule="evenodd"/></g></svg>

<svg xmlns="http://www.w3.org/2000/svg" xmlns:xlink="http://www.w3.org/1999/xlink" preserveAspectRatio="xMidYMid" width="108" height="216" viewBox="0 0 108 216">
  <defs>
    <style>

      .cls-3 {
        fill: #0cb04a;
      }

      .cls-5 {
        fill: #ff3a2f;
      }

      .cls-6 {
        fill: #000000;
        opacity: 0.35;
      }

      .cls-11 {
        fill: #fbb713;
      }

      .cls-13 {
        fill: #142a3b;
      }

      .cls-15 {
        fill: #ededed;
      }
    </style>
  </defs>
  <g id="group-80svg">
    <path d="M54.274,125.482 C54.274,125.482 47.846,125.482 47.846,125.482 C47.846,125.482 47.846,91.141 47.846,91.141 C47.846,91.141 54.274,91.141 54.274,91.141 C54.274,91.141 54.274,125.482 54.274,125.482 Z" id="path-1" class="cls-3" fill-rule="evenodd"/>
    <path d="M73.642,103.215 C73.642,103.215 54.287,122.570 54.287,122.570 C54.014,122.842 53.573,122.842 53.300,122.570 C53.300,122.570 50.421,119.691 50.421,119.691 C50.148,119.419 50.148,118.977 50.421,118.704 C50.421,118.704 69.776,99.350 69.776,99.350 C70.049,99.077 70.490,99.077 70.763,99.350 C70.763,99.350 73.642,102.229 73.642,102.229 C73.915,102.502 73.915,102.942 73.642,103.215 Z" id="path-2" class="cls-3" fill-rule="evenodd"/>
    <path d="M102.338,50.814 C102.338,42.732 95.787,36.181 87.705,36.181 C87.371,36.181 87.045,36.209 86.716,36.231 C86.964,36.014 87.215,35.802 87.451,35.567 C93.165,29.852 93.165,20.588 87.451,14.874 C81.736,9.159 72.472,9.159 66.757,14.874 C66.521,15.110 66.310,15.361 66.093,15.610 C66.115,15.280 66.143,14.953 66.143,14.620 C66.143,6.539 59.592,-0.013 51.510,-0.013 C43.429,-0.013 36.878,6.539 36.878,14.620 C36.878,14.953 36.906,15.280 36.928,15.610 C36.711,15.361 36.499,15.110 36.263,14.874 C30.549,9.159 21.284,9.159 15.570,14.874 C9.855,20.588 9.855,29.852 15.570,35.567 C15.806,35.802 16.057,36.014 16.305,36.231 C15.977,36.209 15.649,36.181 15.316,36.181 C7.234,36.181 0.683,42.732 0.683,50.814 C0.683,58.894 7.234,65.446 15.316,65.446 C15.649,65.446 15.977,65.417 16.305,65.395 C16.057,65.612 15.806,65.823 15.570,66.060 C9.855,71.773 9.855,81.039 15.570,86.753 C21.284,92.466 30.549,92.466 36.263,86.753 C36.499,86.516 36.711,86.265 36.928,86.017 C36.906,86.345 36.878,86.673 36.878,87.008 C36.878,95.088 43.429,101.638 51.510,101.638 C59.592,101.638 66.143,95.088 66.143,87.008 C66.143,86.673 66.115,86.345 66.093,86.017 C66.310,86.265 66.521,86.516 66.757,86.753 C72.472,92.466 81.736,92.466 87.451,86.753 C93.165,81.039 93.165,71.773 87.451,66.060 C87.215,65.823 86.964,65.612 86.716,65.395 C87.045,65.417 87.371,65.446 87.705,65.446 C95.787,65.446 102.338,58.894 102.338,50.814 Z" id="path-3" class="cls-5" fill-rule="evenodd"/>
    <path d="M58.305,10.701 C58.305,11.034 58.278,11.361 58.256,11.690 C58.472,11.442 58.683,11.191 58.920,10.954 C60.482,9.392 62.320,8.298 64.269,7.590 C62.140,3.737 58.368,0.957 53.862,0.224 C56.595,2.883 58.305,6.587 58.305,10.701 Z" id="path-4" class="cls-6" fill-rule="evenodd"/>
    <path d="M79.613,10.954 C85.328,16.669 85.328,25.934 79.613,31.648 C79.377,31.884 79.126,32.096 78.878,32.312 C79.207,32.290 79.534,32.262 79.867,32.262 C82.915,32.262 85.742,33.198 88.084,34.792 C93.095,29.044 92.924,20.346 87.451,14.874 C85.190,12.613 82.370,11.283 79.438,10.812 C79.493,10.865 79.559,10.899 79.613,10.954 Z" id="path-5" class="cls-6" fill-rule="evenodd"/>
    <path d="M102.338,50.814 C102.338,43.538 97.013,37.549 90.057,36.418 C92.790,39.076 94.500,42.780 94.500,46.894 C94.500,54.976 87.949,61.526 79.867,61.526 C79.534,61.526 79.207,61.498 78.878,61.477 C79.126,61.692 79.377,61.904 79.613,62.141 C85.328,67.855 85.328,77.120 79.613,82.833 C76.159,86.287 71.412,87.616 66.932,86.895 C72.658,92.447 81.791,92.412 87.451,86.752 C93.165,81.039 93.165,71.773 87.451,66.060 C87.215,65.823 86.964,65.612 86.716,65.396 C87.045,65.417 87.371,65.446 87.705,65.446 C95.787,65.446 102.338,58.894 102.338,50.814 Z" id="path-6" class="cls-6" fill-rule="evenodd"/>
    <path d="M29.040,83.088 C29.040,82.754 29.068,82.427 29.090,82.099 C28.873,82.346 28.662,82.598 28.426,82.833 C24.972,86.287 20.224,87.616 15.744,86.895 C19.890,90.915 25.805,91.974 30.914,90.117 C29.756,88.023 29.040,85.651 29.040,83.088 Z" id="path-7" class="cls-6" fill-rule="evenodd"/>
    <path d="M58.920,82.833 C58.683,82.598 58.472,82.346 58.256,82.099 C58.278,82.427 58.305,82.754 58.305,83.088 C58.305,91.170 51.754,97.720 43.672,97.720 C42.867,97.720 42.091,97.609 41.321,97.484 C43.957,100.046 47.543,101.638 51.510,101.638 C59.592,101.638 66.143,95.088 66.143,87.008 C66.143,86.920 66.134,86.836 66.130,86.750 C63.490,86.172 60.973,84.887 58.920,82.833 Z" id="path-8" class="cls-6" fill-rule="evenodd"/>
    <path d="M78.056,50.814 C78.056,65.473 66.171,77.357 51.510,77.357 C36.850,77.357 24.966,65.473 24.966,50.814 C24.966,36.153 36.850,24.269 51.510,24.269 C66.171,24.269 78.056,36.153 78.056,50.814 Z" id="path-9" class="cls-11" fill-rule="evenodd"/>
    <path d="M68.212,30.194 C71.912,34.755 74.136,40.562 74.136,46.894 C74.136,61.554 62.252,73.439 47.592,73.439 C41.259,73.439 35.452,71.214 30.890,67.515 C35.757,73.515 43.182,77.357 51.510,77.357 C66.171,77.357 78.056,65.473 78.056,50.814 C78.056,42.484 74.213,35.059 68.212,30.194 Z" id="path-10" class="cls-6" fill-rule="evenodd"/>
    <path d="M77.297,215.520 C77.297,215.520 30.077,215.520 30.077,215.520 C30.077,215.520 0.006,125.311 0.006,125.311 C0.006,125.311 107.368,125.311 107.368,125.311 C107.368,125.311 77.297,215.520 77.297,215.520 Z" id="path-11" class="cls-13" fill-rule="evenodd"/>
    <path d="M0.006,125.310 C0.006,125.310 3.926,137.067 3.926,137.067 C3.926,137.067 53.829,137.067 53.829,137.067 C68.601,137.067 79.030,151.538 74.360,165.550 C74.360,165.550 57.703,215.520 57.703,215.520 C57.703,215.520 77.297,215.520 77.297,215.520 C77.297,215.520 107.368,125.310 107.368,125.310 C107.368,125.310 0.006,125.310 0.006,125.310 Z" id="path-12" class="cls-6" fill-rule="evenodd"/>
    <path d="M35.869,196.552 C34.318,196.552 32.887,195.537 32.426,193.974 C32.426,193.974 19.884,151.521 19.884,151.521 C19.321,149.618 20.409,147.621 22.312,147.059 C24.213,146.500 26.215,147.583 26.774,149.487 C26.774,149.487 39.316,191.939 39.316,191.939 C39.879,193.842 38.791,195.841 36.888,196.402 C36.550,196.501 36.206,196.552 35.869,196.552 Z" id="path-13" class="cls-15" fill-rule="evenodd"/>
  </g>
</svg>
